themes/vice/icons/system/system-shutdown.svg

<svg xmlns="http://www.w3.org/2000/svg" width="16" height="16" version="1.1">
 <path style="fill:#dfdfdf" d="M 8,1 C 8.554,1 9,1.446 9,2 V 7 C 9,7.554 8.554,8 8,8 7.446,8 7,7.554 7,7 V 2 C 7,1.446 7.446,1 8,1 Z"/>
 <path style="fill:#dfdfdf" d="M 11,3 C 10.448,3 10,3.4477 10,4 10,4.2839 10.102,4.5767 10.329,4.748 11.358,5.525 11.998,6.7108 12,8 12,10.209 10.209,12 8,12 5.7909,12 4,10.209 4,8 4.0024,6.7105 4.644,5.5253 5.6719,4.7471 5.8981,4.5759 5.9994,4.2833 6,4 6,3.4477 5.5523,3 5,3 4.7151,3 4.4724,3.1511 4.2539,3.334 2.8611,4.4998 2.0063,6.1837 2,8 2,11.314 4.6863,14 8,14 11.314,14 14,11.314 14,8 13.996,6.1678 13.137,4.4602 11.714,3.2998 11.504,3.1282 11.267,3 11,3 Z"/>
</svg>

<svg xmlns="http://www.w3.org/2000/svg" width="16" height="16">
    <path style="fill:#dfdfdf" d="M8 1c.554 0 1 .446 1 1v5c0 .554-.446 1-1 1s-1-.446-1-1V2c0-.554.446-1 1-1z"/>
    <path style="fill:#dfdfdf" d="M11 3a1 1 0 0 0-1 1c0 .284.102.577.329.748C11.358 5.525 11.998 6.711 12 8a4 4 0 0 1-8 0c.002-1.29.644-2.475 1.672-3.253.226-.171.327-.464.328-.747a1 1 0 0 0-1-1c-.285 0-.528.151-.746.334C2.86 4.5 2.006 6.184 2 8a6 6 0 1 0 12 0c-.004-1.832-.863-3.54-2.286-4.7-.21-.172-.447-.3-.714-.3z"/>
</svg>
